icons/server-24.svg

<svg id="icons" xmlns="http://www.w3.org/2000/svg" viewBox="0 0 24 24"><path d="M6,14H5V13H6Zm4-.99951H9.001V13.999h.998ZM8,13H7v1H8Zm2-3.99951H9.001V9.999h.998ZM8,9H7v1H8Zm2-3.99951H9.001V5.999h.998ZM8,5H7V6H8ZM6,5H5V6H6ZM22,3V16H15v3h1v1h4v1H16v1H13V21H4V20h9V19h1V16H2V3ZM15,20H14v1h1Zm6-8H3v3H21Zm0-4H3v3H21Zm0-4H3V7H21ZM6,9H5v1H6Z"/><path fill="none" d="M0 0h24v24H0z"/></svg>

<svg xmlns="http://www.w3.org/2000/svg" viewBox="0 0 24 24"><path d="M6 14H5v-1h1zm4-1h-.999v1h.998zm-2 0H7v1h1zm2-4h-.999v1h.998zM8 9H7v1h1zm2-4h-.999v1h.998zM8 5H7v1h1zM6 5H5v1h1zm16-2v13h-7v3h1v1h4v1h-4v1h-3v-1H4v-1h9v-1h1v-3H2V3zm-7 17h-1v1h1zm6-8H3v3h18zm0-4H3v3h18zm0-4H3v3h18zM6 9H5v1h1z"/><path fill="none" d="M0 0h24v24H0z"/></svg>
